public/img/percent.svg

<svg width="12" height="12" viewBox="0 0 12 12" fill="none" xmlns="http://www.w3.org/2000/svg">
<path d="M2.625 5.25C1.9 5.25 1.28125 4.99375 0.76875 4.48125C0.25625 3.96875 0 3.35 0 2.625C0 1.9 0.25625 1.28125 0.76875 0.76875C1.28125 0.25625 1.9 0 2.625 0C3.35 0 3.96875 0.25625 4.48125 0.76875C4.99375 1.28125 5.25 1.9 5.25 2.625C5.25 3.35 4.99375 3.96875 4.48125 4.48125C3.96875 4.99375 3.35 5.25 2.625 5.25ZM2.625 3.75C2.9375 3.75 3.20312 3.64062 3.42188 3.42188C3.64062 3.20312 3.75 2.9375 3.75 2.625C3.75 2.3125 3.64062 2.04688 3.42188 1.82812C3.20312 1.60938 2.9375 1.5 2.625 1.5C2.3125 1.5 2.04688 1.60938 1.82812 1.82812C1.60938 2.04688 1.5 2.3125 1.5 2.625C1.5 2.9375 1.60938 3.20312 1.82812 3.42188C2.04688 3.64062 2.3125 3.75 2.625 3.75ZM9.375 12C8.65 12 8.03125 11.7438 7.51875 11.2313C7.00625 10.7188 6.75 10.1 6.75 9.375C6.75 8.65 7.00625 8.03125 7.51875 7.51875C8.03125 7.00625 8.65 6.75 9.375 6.75C10.1 6.75 10.7188 7.00625 11.2313 7.51875C11.7438 8.03125 12 8.65 12 9.375C12 10.1 11.7438 10.7188 11.2313 11.2313C10.7188 11.7438 10.1 12 9.375 12ZM9.375 10.5C9.6875 10.5 9.95312 10.3906 10.1719 10.1719C10.3906 9.95312 10.5 9.6875 10.5 9.375C10.5 9.0625 10.3906 8.79688 10.1719 8.57812C9.95312 8.35938 9.6875 8.25 9.375 8.25C9.0625 8.25 8.79688 8.35938 8.57812 8.57812C8.35938 8.79688 8.25 9.0625 8.25 9.375C8.25 9.6875 8.35938 9.95312 8.57812 10.1719C8.79688 10.3906 9.0625 10.5 9.375 10.5ZM1.05 12L0 10.95L10.95 0L12 1.05L1.05 12Z" fill="#A3FF87"/>
</svg>

<svg xmlns="http://www.w3.org/2000/svg" width="12" height="12" fill="none"><path fill="#A3FF87" d="M2.625 5.25a2.53 2.53 0 0 1-1.856-.769A2.53 2.53 0 0 1 0 2.625Q0 1.537.769.769A2.53 2.53 0 0 1 2.625 0a2.53 2.53 0 0 1 1.856.769 2.53 2.53 0 0 1 .769 1.856 2.53 2.53 0 0 1-.769 1.856 2.53 2.53 0 0 1-1.856.769m0-1.5q.469 0 .797-.328.328-.329.328-.797t-.328-.797a1.09 1.09 0 0 0-.797-.328q-.468 0-.797.328a1.09 1.09 0 0 0-.328.797q0 .469.328.797t.797.328M9.375 12a2.53 2.53 0 0 1-1.856-.769 2.53 2.53 0 0 1-.769-1.856q0-1.088.769-1.856a2.53 2.53 0 0 1 1.856-.769 2.53 2.53 0 0 1 1.856.769A2.53 2.53 0 0 1 12 9.375a2.53 2.53 0 0 1-.769 1.856A2.53 2.53 0 0 1 9.375 12m0-1.5q.469 0 .797-.328.328-.329.328-.797t-.328-.797a1.09 1.09 0 0 0-.797-.328q-.468 0-.797.328a1.09 1.09 0 0 0-.328.797q0 .469.328.797.329.328.797.328M1.05 12 0 10.95 10.95 0 12 1.05z"/></svg>
